X:1
T:Clifton College, 87.87.47
T:Herbert Stanley Oakeley, 1889
T:Clifton College, 87.87.47
T:Public Domain
C:Herbert Stanley Oakeley, 1889
Z:Public Domain
%%score ( 1 2 ) ( 3 4 )
L:1/8
M:4/4
K:Ab
V:1 treble 
V:2 treble 
V:3 bass 
V:4 bass 
V:1
 [EA]3 [EA] | [EG]2 [EA]2 [DB]2 [CA]2 | [DF]2 [CE]2 [EB]3 [EG] | [EA]2 [Ac]2 [Gc]2 (GF) | %4
 [Ec]4 [Fc]3 [F=A] | [FB]2 [Fc]2 [Fd]2 [Ee]2 | [Ed]2 [Ec]2 =E2 z B x | [FA]2 [FA]2 [FG]2 [=EG]2 | %8
 F4 [FA]3 [Fd] | [_Gd]2 [Gc]2 [GB]2 [GA]2 | [Fdf]6 [Bd]2 | (B2 A2 G2) [E-GB]2 | [EA]4 |] %13
V:2
 x4 | x8 | x8 | x6 =B2 | x8 | x8 | x4 c3 G2 | x8 | F4 x4 | x8 | x8 | c6 x2 | x4 |] %13
V:3
 [A,C]3 [A,C] | [B,D]2 [A,C]2 [E,G,]2 [F,A,]2 | [D,A,]2 A,2 [G,D]3 [B,D] | %3
 [A,C]2 (C=D) [G,E]2 [G,D]2 | [C,C]4 [F,=A,]3 [E,C] | [D,B,]2 [C,=A,]2 (B,,_A,,) [G,,B,]2 | %6
 [A,,B,]2 [A,,A,]2 [C,G,]2 [=E,C]2 x | [F,C]2 [A,,C]2 [B,,D]2 (CB,) | [F,A,]4 [D,A,]3 [D,A,] | %9
 (A,B,) [A,,C]2 [B,,D]2 [C,E]2 | (A,2 =A,2 B,2) [D,F]2 | [E,E]6 [E,D]2 | [A,C]4 |] %13
V:4
 x4 | x8 | x2 A,2 x4 | x2 F,2 x4 | x8 | x4 B,2 x2 | x9 | x6 C,2 | x8 | E,2 x6 | D,6 x2 | x8 | x4 |] %13

